weblate/static/auth/fedora.svg

<svg width="863.12" height="863.12" version="1.1" viewBox="0 0 228.37 228.37" xmlns="http://www.w3.org/2000/svg"><defs><clipPath id="clipPath888-8"><path d="m0 0h396.85v396.85h-396.85z"/></clipPath><clipPath id="clipPath872-2"><path d="m0 0h396.85v396.85h-396.85z"/></clipPath><clipPath id="clipPath856-4"><path d="m0 0h396.85v396.85h-396.85z"/></clipPath><clipPath id="clipPath840-2"><path d="m0 0h396.85v396.85h-396.85z"/></clipPath></defs><g transform="translate(-19.897 -60.723)"><g transform="matrix(5.8279 0 0 -5.8279 -390.36 1330.8)" fill="#294172"><g clip-path="url(#clipPath840-2)" fill="#294172"><g fill="#294172"><g transform="translate(70.782 217.93)" fill="#294172"><g fill="#294172"><path d="m38.413-19.594c0 10.821-8.599 19.594-19.207 19.594-10.603 0-19.198-8.7652-19.206-19.58l-6.2e-4 7e-4v-15.162l6.2e-4 -6e-4c0.00584-2.4554 1.9578-4.4433 4.3664-4.4433 0.00677 0 0.01354 6e-4 0.02062 6e-4l0.00122-6e-4h14.825c10.604 0.0043 19.199 8.7736 19.199 19.592z" fill="#294172" fill-rule="evenodd"/></g></g></g></g></g><g transform="matrix(5.8279 0 0 -5.8279 -392.61 1330.8)" fill="#3c6eb4"><g clip-path="url(#clipPath856-4)" fill="#3c6eb4"><g fill="#3c6eb4"><g transform="translate(72.841 213.29)" fill="#3c6eb4"><g fill="#3c6eb4"><path d="m22.786 0c-4.9787 0-9.0144-4.117-9.0144-9.1958v-4.874h-4.7577c-4.9789 0-9.0143-4.0968-9.0143-9.1751 0-5.0788 4.0354-9.1962 9.0143-9.1962 4.9783 0 9.0143 4.1176 9.0143 9.1962v4.894h4.7578c4.9781 0 9.0142 4.0762 9.0142 9.155 0 5.0789-4.0361 9.1958-9.0142 9.1958zm-9.0141-23.253c-0.0043-2.6768-2.1332-4.846-4.7577-4.846-2.6276 0-4.7774 2.1733-4.7774 4.8537 0 2.681 2.1498 4.8947 4.7774 4.8947 0.00248 0 0.00462-6e-4 0.00646-6e-4h4.0766c0.0013 0 0.0022 6e-4 0.0031 6e-4 0.371 0 0.6722-0.3063 0.6722-0.6848 0-3e-4 -3e-4 -9e-4 -3e-4 -0.0015v-4.2161zm9.0137 9.1835h-4.0858c-0.3717 0-0.6719 0.307-0.6719 0.6855v4.1963c0.0046 2.6777 2.1329 4.846 4.7573 4.846 2.628 0 4.7782-2.173 4.7782-4.8542 5e-4 -2.6804-2.15-4.8736-4.7778-4.8736z" fill="#3c6eb4" fill-rule="evenodd"/></g></g></g></g></g><g transform="matrix(5.8279 0 0 -5.8279 -392.61 1330.8)"><g clip-path="url(#clipPath872-2)"><g transform="translate(78.012 213.29)"><path d="m8.6017-14.07v4.874c0 5.0789 4.0357 9.1958 9.0143 9.1958 0.7556 0 1.2921-0.08631 1.9918-0.27336 1.0191-0.27241 1.8519-1.1245 1.8523-2.1165 2e-4 -1.1989-0.8529-2.0704-2.1277-2.0704-0.6076 0-0.827 0.11862-1.7167 0.11862-2.6245 0-4.7528-2.1683-4.7574-4.846v-4.1963c0-0.3785 0.3003-0.6855 0.6719-0.6855h3.126c1.1644 0 2.1042-0.9503 2.1052-2.141 0-1.1916-0.9411-2.1401-2.1052-2.1401h-3.7979v-4.8947c0-5.0782-4.036-9.1954-9.0143-9.1954-0.75528 0-1.2921 0.087-1.9914 0.2732-1.0192 0.2723-1.8523 1.125-1.8526 2.1167 0 1.1988 0.85279 2.0706 2.128 2.0706 0.60697 0 0.82693-0.1188 1.716-0.1188 2.6245 0 4.7534 2.1686 4.758 4.846v4.2173c0 0.3779-0.30118 0.6842-0.6722 0.6842h-0.00186l-3.1238 6e-4c-1.1644 0-2.1055 0.9478-2.1055 2.1388-6e-4 1.1986 0.95062 2.1423 2.1277 2.1423z" fill="#fff" fill-rule="evenodd"/></g></g></g><g transform="matrix(5.8279 0 0 -5.8279 -392.61 1330.8)"><g clip-path="url(#clipPath888-8)"><g transform="translate(104.01 182.59)"><path d="m1.5416-0.53425v-2.6556h-0.57602v2.6556h-0.96557v0.53425h2.5063v-0.53425zm4.0164-2.6556v2.049c-0.04227-0.09735-0.09449-0.21104-0.13759-0.31775l-0.84538-1.8286-0.82799 1.8286c-0.04144 0.10671-0.09448 0.2204-0.13675 0.30996 0.00829-0.11526 0.00829-0.25233 0.00829-0.35746v-1.6837h-0.55116v3.1899h0.57768l0.76665-1.651c0.0605-0.13863 0.12847-0.31774 0.17986-0.43768 0.05138 0.12927 0.12183 0.29049 0.18067 0.43768l0.75091 1.651h0.58514v-3.1899z" fill="#fff" fill-rule="evenodd"/></g></g></g></g></svg>

<svg xmlns="http://www.w3.org/2000/svg" xmlns:svg="http://www.w3.org/2000/svg" id="svg6840" width="863.124" height="863.124" version="1.1" viewBox="0 0 228.368 228.368"><defs id="defs6834"><path id="path5400" fill="none" stroke="none" stroke-linecap="butt" stroke-linejoin="miter" stroke-opacity="1" stroke-width=".265" d="M 77.21002,43.591088 C 77.19447,23.157362 113.4036,11.724117 120.18838,44.302237"/><path id="path5409" fill="none" stroke="none" stroke-linecap="butt" stroke-linejoin="miter" stroke-opacity="1" stroke-width=".258" d="m 82.822055,64.601826 c 9.013811,7.641516 23.750885,5.676562 31.616475,-0.03916"/><clipPath id="clipPath888" clipPathUnits="userSpaceOnUse"><path id="path886" d="M 0,0 H 396.85039 V 396.85039 H 0 Z"/></clipPath><clipPath id="clipPath872" clipPathUnits="userSpaceOnUse"><path id="path870" d="M 0,0 H 396.85039 V 396.85039 H 0 Z"/></clipPath><clipPath id="clipPath856" clipPathUnits="userSpaceOnUse"><path id="path854" d="M 0,0 H 396.85039 V 396.85039 H 0 Z"/></clipPath><clipPath id="clipPath840" clipPathUnits="userSpaceOnUse"><path id="path838" d="M 0,0 H 396.85039 V 396.85039 H 0 Z"/></clipPath><clipPath id="clipPath888-8" clipPathUnits="userSpaceOnUse"><path id="path886-6" d="M 0,0 H 396.85039 V 396.85039 H 0 Z"/></clipPath><clipPath id="clipPath872-2" clipPathUnits="userSpaceOnUse"><path id="path870-8" d="M 0,0 H 396.85039 V 396.85039 H 0 Z"/></clipPath><clipPath id="clipPath856-4" clipPathUnits="userSpaceOnUse"><path id="path854-7" d="M 0,0 H 396.85039 V 396.85039 H 0 Z"/></clipPath><clipPath id="clipPath840-2" clipPathUnits="userSpaceOnUse"><path id="path838-4" d="M 0,0 H 396.85039 V 396.85039 H 0 Z"/></clipPath></defs><metadata id="metadata6837"/><g id="layer1" transform="translate(-19.896939,-60.723174)"><g id="g834-0" fill="#294172" transform="matrix(5.8278896,0,0,-5.8278896,-390.36137,1330.8025)"><g id="g836-6" fill="#294172" clip-path="url(#clipPath840-2)"><g id="g842-2" fill="#294172"><g id="g844-9" fill="#294172" transform="translate(70.78184,217.93126)"><g id="g846-9" fill="#294172"><path id="path848-0" fill="#294172" fill-opacity="1" fill-rule="evenodd" stroke="none" d="M 38.4131,-19.5937 C 38.4131,-8.77247 29.8141,0 19.2065,0 8.60389,0 0.00831,-8.76524 6.2e-4,-19.5799 L 0,-19.5792 v -15.1623 l 6.2e-4,-6e-4 c 0.00584,-2.4554 1.95784,-4.4433 4.36639,-4.4433 0.00677,0 0.01354,6e-4 0.02062,6e-4 l 0.00122,-6e-4 H 19.2139 v 0 c 10.6044,0.0043 19.1992,8.7736 19.1992,19.5917 z"/></g></g></g></g></g><g id="g850-8" fill="#3c6eb4" transform="matrix(5.8278896,0,0,-5.8278896,-392.61181,1330.8025)"><g id="g852-1" fill="#3c6eb4" clip-path="url(#clipPath856-4)"><g id="g858-3" fill="#3c6eb4"><g id="g860-1" fill="#3c6eb4" transform="translate(72.84084,213.28626)"><g id="g862-1" fill="#3c6eb4"><path id="path864-0" fill="#3c6eb4" fill-opacity="1" fill-rule="evenodd" stroke="none" d="m 22.7864,0 c -4.9787,0 -9.0144,-4.11695 -9.0144,-9.19585 0,-0.00187 0,-0.00406 0,-0.00659 V -14.0698 H 9.01582 c -9.3e-4,0 -9.3e-4,0 -0.00153,0 C 4.03536,-14.0698 0,-18.1666 0,-23.2449 c 0,-5.0788 4.03536,-9.1962 9.01429,-9.1962 4.97831,0 9.01431,4.1176 9.01431,9.1962 0,0.0016 0,0.0041 0,0.0059 v 4.8881 h 4.7558 c 10e-4,0 0.0016,0 0.002,0 4.9781,0 9.0142,4.0762 9.0142,9.15505 C 31.8006,-4.11695 27.7645,0 22.7864,0 Z m -9.0141,-23.253 c -0.0043,-2.6768 -2.1332,-4.846 -4.75772,-4.846 -2.62757,0 -4.77739,2.1733 -4.77739,4.8537 0,2.681 2.14982,4.8947 4.77739,4.8947 0.00248,0 0.00462,-6e-4 0.00646,-6e-4 h 4.07656 c 0.0013,0 0.0022,6e-4 0.0031,6e-4 0.371,0 0.6722,-0.3063 0.6722,-0.6848 0,-3e-4 -3e-4,-9e-4 -3e-4,-0.0015 v -4.2161 z m 9.0137,9.1835 c -0.0016,0 -0.0031,0 -0.0047,0 H 18.702 c -6e-4,0 -0.0018,0 -0.0018,0 -0.3717,0 -0.6719,0.307 -0.6719,0.6855 v 6e-4 4.19572 c 0.0046,2.6777 2.1329,4.84601 4.7573,4.84601 2.628,0 4.7782,-2.17303 4.7782,-4.85418 5e-4,-2.68045 -2.15,-4.87365 -4.7778,-4.87365 z"/></g></g></g></g></g><g id="g866-3" transform="matrix(5.8278896,0,0,-5.8278896,-392.61181,1330.8025)"><g id="g868-4" clip-path="url(#clipPath872-2)"><g id="g874-0"><g id="g876-3" transform="translate(78.01184,213.28726)"><g id="g878-9"><path id="path880-1" fill="#fff" fill-opacity="1" fill-rule="evenodd" stroke="none" d="m 8.60173,-14.0698 v 4.86736 c 0,0.00253 0,0.00472 0,0.00659 C 8.60173,-4.11695 12.6374,0 17.616,0 c 0.7556,0 1.2921,-0.08631 1.9918,-0.27336 1.0191,-0.27241 1.8519,-1.12449 1.8523,-2.11653 2e-4,-1.19888 -0.8529,-2.0704 -2.1277,-2.0704 -0.6076,0 -0.827,0.11862 -1.7167,0.11862 -2.6245,0 -4.7528,-2.16831 -4.7574,-4.84601 v -4.19572 -6e-4 c 0,-0.3785 0.3003,-0.6855 0.6719,-0.6855 0,0 0.0012,0 0.0018,0 h 3.1242 c 1.1644,0 2.1042,-0.9503 2.1052,-2.141 0,-1.1916 -0.9411,-2.1401 -2.1052,-2.1401 h -3.7979 v -4.888 c 0,-0.002 0,-0.0043 0,-0.0067 0,-5.0782 -4.03599,-9.1954 -9.01428,-9.1954 -0.75528,0 -1.29212,0.087 -1.99139,0.2732 -1.01922,0.2723 -1.85232,1.125 -1.85263,2.1167 0,1.1988 0.85279,2.0706 2.12798,2.0706 0.60697,0 0.82693,-0.1188 1.71604,-0.1188 2.6245,0 4.75341,2.1686 4.75802,4.846 v 4.2173 c 0,0.3779 -0.30118,0.6842 -0.6722,0.6842 -6.2e-4,0 -9.3e-4,0 -0.00186,0 l -3.1238,6e-4 c -1.16444,0 -2.10553,0.9478 -2.10553,2.1388 -6e-4,1.1986 0.95062,2.1423 2.12767,2.1423 z"/></g></g></g></g></g><g id="g882-9" transform="matrix(5.8278896,0,0,-5.8278896,-392.61181,1330.8025)"><g id="g884-6" clip-path="url(#clipPath888-8)"><g id="g890-9"><g id="g892-3" transform="translate(104.01484,182.59426)"><g id="g894-3"><path id="path896-8" fill="#fff" fill-opacity="1" fill-rule="evenodd" stroke="none" d="M 1.54159,-0.53425 V -3.1899 H 0.96557 v 2.65565 L 0,-0.53425 V 0 H 2.50633 V -0.53425 Z M 5.55802,-3.1899 v 1.68373 c 0,0.11292 0,0.25077 0,0.36525 C 5.51575,-1.23827 5.46353,-1.35196 5.42043,-1.45867 L 4.57505,-3.28726 3.74706,-1.45867 C 3.70562,-1.35196 3.65258,-1.23827 3.61031,-1.14871 3.6186,-1.26397 3.6186,-1.40104 3.6186,-1.50617 V -3.1899 H 3.06744 V 0 h 0.57768 l 0.76665,-1.65102 c 0.0605,-0.13863 0.12847,-0.31774 0.17986,-0.43768 0.05138,0.12927 0.12183,0.29049 0.18067,0.43768 L 5.52321,0 h 0.58514 v -3.1899 z"/></g></g></g></g></g></g></svg>
